X:5606
T:Roger de Coverley
O:england
M:9/8
A:North-West
R:Slip jig
K:G
GAG G2e dBG| E2A ABG FED| GAG G2e dBd| g2G GAG FED::
dBd ece dBG| E2A ABG FED| dBd ece def| g2G GAG FED::
gag f2e dBG| E2A ABG FED| gag f2e def| g2G GAG FED:|


